X: 14408
T: Galway Belle, The
R: polka
M: 2/4
K: Eminor
|:EE/2F/2 G/2F/2G/2A/2|Be B>A|FD D/2E/2F/2G/2|A>B A/2G/2F/2D/2|
EE/2F/2 G/2F/2G/2A/2|Be B>A|Ee BA/2F/2|E2 E2:|
|:ee B/2^c/2d/2B/2|ee B>^c|dA A/2B/2A/2G/2|F/2G/2A/2F/2 D2|
EE/2F/2 G/2F/2G/2A/2|Be B>A|Ee BA/2F/2|E2 E2:|

